X: 19107
T: Irish March
R: jig
M: 6/8
K: Gmajor
B2 G c2 A|B2 d A3|B2 d c2 e|B2 d A3|
B>AB c3|B>AG A3|B>AB e>d e|B>AG A2 D|
G>AB c>GA|A>cd A2D|G>AB c>GA|B>cd A3|
GBG efe|GBG FAF|GBG cec|GBG dAD|
G>AB c>de|de/f/g f2 d|G>AB c>de|de/f/g f2 d|
GGd c e2|d g2 f a2|g2 d e2 c|d2 B c2 A|
G>AB c>dc|B>AG A2 D|GG/F/G Eec|BGg f d2|
B>cd e c2|dBg f d2|d>gd e c2|G>AG F D2|
G>AG/B/ A/d/ed/c/|B/A/B/c/d/e/ f/g/ag/f/|g f/e/d edc|Bc/B/A/G/ F/E/F/G/A/F/|
G/A/B/c/d/B/ c/d/e/f/g|G/A/B/c/d/e/ f>ga/f/|g3g3|g3 f3|
Gg/d/B/G/ c/B/c/d/c|Aa/g/f/e/ d/c/d/e/d|gB/=c/d edc|
Bc/B/ A/G/ F>ED|E>FG F>EF|G6|

